!!!COM: Beethoven
!!!OTL: 6 Variationen uber "Nel cor piu non mi sento" von G. Paisiello
!!!Variation: Variation 6 g
**function	**kern	**kern	**kern
*	*	*clefF4	*clefG2
*	*	*k[f#]	*k[f#]
*M6/8	*M6/8	*M6/8	*M6/8
*G:	*G:	*G:	*G:
4.T	4.V7/IV	16GGLL	4r
.	.	16BB	.
.	.	16F	.
.	.	16BB	.
.	.	16F	8g
.	.	16BBJJ	.
=157	=157	=157	=157
4.T	4.IVc	16GGLL	(4e
.	.	16C	.
.	.	16E	.
.	.	16C	.
.	.	16E	8g)
.	.	16CJJ	.
4.T	4.V7/IV	16GGLL	(4d
.	.	16BB	.
.	.	16F	.
.	.	16BB	.
.	.	16F	8g)
.	.	16BBJJ	.
=158	=158	=158	=158
4.T	4.IVc	16GGLL	4c
.	.	16C	.
.	.	16E	.
.	.	16C	.
.	.	16E	8r
.	.	16CJJ	.
4.T	4.V7	16GGLL	4r
.	.	16AA	.
.	.	16F#	.
.	.	16AA	.
.	.	16F#	8dd
.	.	16AAJJ	.
=159	=159	=159	=159
4.T	4.I	16GGLL	(4b
.	.	16BB	.
.	.	16G	.
.	.	16BB	.
.	.	16G	8dd)
.	.	16BBJJ	.
4.T	4.V7	16GGLL	(4a
.	.	16C	.
.	.	16F#	.
.	.	16C	.
.	.	16F#	8dd)
.	.	16CJJ	.
=160	=160	=160	=160
4.T	4.I	16GGLL	4g
.	.	16BB	.
.	.	16G	.
.	.	16BB	.
.	.	16G	8r
.	.	16BBJJ	.
4.T	4.V7/IV	16GGLL	8r
.	.	16BB	.
.	.	16F	(16aaLL
.	.	16BB	16gg)
.	.	16F	16aa
.	.	16BBJJ	16ggJJ)
=161	=161	=161	=161
4.T	4.IVc	16GGLL	8ee'L
.	.	16C	.
.	.	16E	(16aaL
.	.	16C	16gg
.	.	16E	16aa
.	.	16CJJ	16ggJJ)
4.T	4.V7/IV	16GGLL	8dd'L
.	.	16BB	.
.	.	16F	(16aaL
.	.	16BB	16gg
.	.	16F	16aa
.	.	16BBJJ	16ggJJ)
=162	=162	=162	=162
4.T	4.IVc	16GGLL	4cc
.	.	16C	.
.	.	16E	.
.	.	16C	.
.	.	16E	8r
.	.	16CJJ	.
4.T	4.V7	16GGLL	8r
.	.	16AA	.
.	.	16F#	(16eeeLL
.	.	16AA	16ddd
.	.	16F#	16eee
.	.	16AAJJ	16dddJJ)
=163	=163	=163	=163
4.T	4.I	16GGLL	8bb'L
.	.	16BB	.
.	.	16G	(16eeeL
.	.	16BB	16ddd
.	.	16G	16eee
.	.	16BBJJ	16dddJJ)
4.T	4.V7	16GGLL	8aa'L
.	.	16C	.
.	.	16F#	(16eeeL
.	.	16C	16ddd
.	.	16F#	16eee
.	.	16CJJ	16dddJJ)
=164	=164	=164	=164
4.T	4.I	16GGLL	4gg
.	.	16BB	.
.	.	16G	.
.	.	16BB	.
.	.	16G	8r
.	.	16BBJJ	.
4.T	4.V7	16GGLL	8r
.	.	16C	.
.	.	16F#	(16eeLL
.	.	16C	16dd
.	.	16F#	16ee
.	.	16CJJ	16ddJJ)
=165	=165	=165	=165
4.T	4.I	16GGLL	4g
.	.	16BB	.
.	.	16G	.
.	.	16BB	.
.	.	16G	8r
.	.	16BBJJ	.
4.T	4.V7	16GGLL	8r
.	.	16C	.
.	.	16F#	(16eLL
.	.	16C	16d
.	.	16F#	16e
.	.	16CJJ	16dJJ)
=166	=166	=166	=166
2.T	2.I	16GGLL	4B
.	.	16BB	.
.	.	16D	.
.	.	16G	.
.	.	16D	8r
.	.	16BBJJ	.
.	.	16GGLL	4B 4g
.	.	16BB	.
.	.	16D	.
.	.	16G	.
.	.	16D	8r
.	.	16BBJJ	.
=167	=167	=167	=167
2.T	2.I	4GG	4B 4g
.	.	8r	8r
.	.	4r;	4r;
.	.	8r;	8r;
==	==	==	==
*-	*-	*-	*-
